contributed-vectors/evolve.svg

<svg xmlns="http://www.w3.org/2000/svg" viewBox="0 0 192 192"><defs><clipPath id="a"><rect width="153" height="153" x="19.5" y="19.5" rx="10" style="fill:none"/></clipPath></defs><g style="clip-path:url(#a)"><rect width="153" height="153" x="19.5" y="19.5" rx="10" style="fill:#f9de81"/><path d="M68.17 57.34a21.57 21.57 0 0 0-42.83 0 13.89 13.89 0 0 0 0 27.77h42.83a13.89 13.89 0 1 0 0-27.77Z" style="fill:#fdf5d9"/><path d="m190.78 80.68-14.67 55.72c-38-10-81.08 15.11-91.09 53.12l-55.71-14.67a132.16 132.16 0 0 1 161.47-94.17Z" style="fill:#ff837d"/><path d="m85 189.52-45.84-12.07a122 122 0 0 1 149-86.92l-12.05 45.87C138.1 126.39 95 151.51 85 189.52Z" style="fill:#f8c18c"/><path d="M85 189.52 49 180a111.83 111.83 0 0 1 136.6-79.65l-9.49 36.05C138.1 126.39 95 151.51 85 189.52Z" style="fill:#f9de81"/><path d="m85 189.52-26.2-6.9A101.67 101.67 0 0 1 183 110.19l-6.9 26.21c-38-10.01-81.1 15.11-91.1 53.12Z" style="fill:#98dc9a"/><path d="m85 189.52-16.37-4.32A91.51 91.51 0 0 1 180.42 120l-4.31 16.39C138.1 126.39 95 151.51 85 189.52Z" style="fill:#9abeff"/><path d="m88.29 190.38-9.85-2.59a81.32 81.32 0 0 1 99.35-57.94l-2.59 9.85a71.12 71.12 0 0 0-86.91 50.68Z" style="fill:#bd9aff"/><path d="M96 113.62a29.06 29.06 0 1 1 29.06-29.06A29.09 29.09 0 0 1 96 113.62ZM96 68a16.6 16.6 0 1 0 16.6 16.59A16.61 16.61 0 0 0 96 68Z" style="fill:#fff;fill-rule:evenodd"/><path d="M96 56.5a28.06 28.06 0 1 1-28.06 28.06A28.06 28.06 0 0 1 96 56.5m0 45.66a17.6 17.6 0 1 0-17.6-17.6 17.6 17.6 0 0 0 17.6 17.6m0-47.66a30.06 30.06 0 1 0 30.06 30.06A30.09 30.09 0 0 0 96 54.5Zm0 45.66a15.6 15.6 0 1 1 15.6-15.6 15.62 15.62 0 0 1-15.6 15.6Z" style="fill:#fff"/><path d="M73.17 136.5a6.24 6.24 0 0 1 0-12.47h45.66a6.24 6.24 0 0 1 0 12.47Z" style="fill:#fff;fill-rule:evenodd"/><path d="M118.83 125a5.24 5.24 0 0 1 5.23 5.24 5.23 5.23 0 0 1-5.23 5.23H73.17a5.23 5.23 0 0 1-5.23-5.23 5.24 5.24 0 0 1 5.23-5.24h45.66m0-2H73.17a7.24 7.24 0 0 0 0 14.47h45.66a7.24 7.24 0 0 0 0-14.47Z" style="fill:#fff"/></g></svg>

<svg xmlns="http://www.w3.org/2000/svg" xmlns:xlink="http://www.w3.org/1999/xlink" viewBox="0 0 192 192"><defs><clipPath id="a"><rect x="19.5" y="19.5" width="153" height="153" rx="10" style="fill:none"/></clipPath></defs><g style="clip-path:url(#a)"><rect x="19.5" y="19.5" width="153" height="153" rx="10" style="fill:#f9de81"/><path d="M68.17,57.34a21.57,21.57,0,0,0-42.83,0,13.89,13.89,0,0,0,0,27.77H68.17a13.89,13.89,0,1,0,0-27.77Z" style="fill:#fdf5d9"/><path d="M190.78,80.68,176.11,136.4c-38-10-81.08,15.11-91.09,53.12L29.31,174.85A132.16,132.16,0,0,1,190.78,80.68Z" style="fill:#ff837d"/><path d="M85,189.52,39.16,177.45a122,122,0,0,1,149-86.92L176.11,136.4C138.1,126.39,95,151.51,85,189.52Z" style="fill:#f8c18c"/><path d="M85,189.52,49,180A111.83,111.83,0,0,1,185.6,100.35l-9.49,36.05C138.1,126.39,95,151.51,85,189.52Z" style="fill:#f9de81"/><path d="M85,189.52l-26.2-6.9A101.67,101.67,0,0,1,183,110.19l-6.9,26.21C138.1,126.39,95,151.51,85,189.52Z" style="fill:#98dc9a"/><path d="M85,189.52,68.63,185.2A91.51,91.51,0,0,1,180.42,120l-4.31,16.39C138.1,126.39,95,151.51,85,189.52Z" style="fill:#9abeff"/><path d="M88.29,190.38l-9.85-2.59a81.32,81.32,0,0,1,99.35-57.94l-2.59,9.85A71.12,71.12,0,0,0,88.29,190.38Z" style="fill:#bd9aff"/><path d="M96,113.62a29.06,29.06,0,1,1,29.06-29.06A29.09,29.09,0,0,1,96,113.62ZM96,68a16.6,16.6,0,1,0,16.6,16.59A16.61,16.61,0,0,0,96,68Z" style="fill:#fff;fill-rule:evenodd"/><path d="M96,56.5A28.06,28.06,0,1,1,67.94,84.56,28.06,28.06,0,0,1,96,56.5m0,45.66a17.6,17.6,0,1,0-17.6-17.6A17.6,17.6,0,0,0,96,102.16M96,54.5a30.06,30.06,0,1,0,30.06,30.06A30.09,30.09,0,0,0,96,54.5Zm0,45.66a15.6,15.6,0,1,1,15.6-15.6A15.62,15.62,0,0,1,96,100.16Z" style="fill:#fff"/><path d="M73.17,136.5a6.24,6.24,0,0,1,0-12.47h45.66a6.24,6.24,0,0,1,0,12.47Z" style="fill:#fff;fill-rule:evenodd"/><path d="M118.83,125a5.24,5.24,0,0,1,5.23,5.24h0a5.23,5.23,0,0,1-5.23,5.23H73.17a5.23,5.23,0,0,1-5.23-5.23h0A5.24,5.24,0,0,1,73.17,125h45.66m0-2H73.17a7.24,7.24,0,0,0,0,14.47h45.66a7.24,7.24,0,0,0,0-14.47Z" style="fill:#fff"/></g></svg>
